X: 1
T: Steren
Z: Damien Rogeau
S: https://thesession.org/tunes/14713#setting27154
R: hornpipe
M: 4/4
L: 1/8
K: Bmin
|:egfe dfed|Bcde dBBA|F2fe dfe|BdeG GF E2|egfe (3def ed|
|cdde BAAG|F2 EF ABde|1dBgG GFE2:|2dBgG GFG2|GAB2Bd (3dcB|:
|defb baba|fded' d'c'ba|faag fdgf|eBd2defd|dcBd faag|
|1fdeb bc'd'b|afef fdcA|F4Bc (3dcB:|2fdeb baga|fede edB2:|
